X: 33
T: Dancing Song (e)
C: Teton Sioux band 1911-1914
N: Derived from sioux033.krn
O: South Dakota, U.S.A.
N: Teton Sioux Music by Frances Densmore, 1918
Z: transcribed to **kern format by Craig Sapp
L: 1/8
M: 2/4
Q: 1/4=58
K: F clef=bass
%%linebreak <none>
F2F C [I:setbarnb 2]| 
F2F2 | 
F CC2 | 
C G,G,2 ||  
[M:3/4]F,< F,F,4 ||  
[M:2/4]C2C G, | 
C G,G,2 | 
G,2F,2 ||  
[M:3/4]D,6 ||  
[M:2/4]F,< F, G, F, | 
G,< F,F,2 | 
G, D,G,2 | 
G,< F,F,2 | 
F,4 | 
F, D,F,2 | 
G,4 ||  
[M:3/4]F, F,F,4 ||  
[M:2/4]C2C G, | 
C G,G,2 | 
G,2F,2 ||  
[M:3/4]D,6 ||  
[M:2/4]F,< F, G, F, | 
G,< F,F,2 | 
F, D,F,2 | 
G,< F,F,2 | 
F,4 ||  



